X:118
T:Kingston Volunteers Quickstep,The,2voices. JGi.117
M:2/4
L:1/8
Q:1/4=130
S:Joshua Gibbons MS,1823,Tealby,Lincs.
R:quick step
C:’J.Perry’
O:Tealby,Lincolnshire
Z:VMP/R.Greig, 2009
K:F
[V:1]|:f2cf|f2cc|defA|(g2f/e/d/c/)|egce|gfF2:|
[V:2]|:A2AA|A2AA|BcAA|(e2cA)|cecB|BAA2:|
[V:1]|:g2f/e/d/c/|fac’a|g2f/e/d/c/|faf2|g2f/e/d/c/|gac’c|c’2b/a/g/f/|gaf2:|
[V:2]|:e2d/c/=B/c/|AAcf|e2d/c/=B/c/|AfA2|e2d/c/=B/c/|AAcA|a2g/f/e/d/|cAA2:|
[V:1]|:”Minor”d>efe|d>efe|d^cde|fgag|gffe|edd^c|de/f/ ed|d^c c2:|
[V:2]|:D>EFE|D>EFE|A3A|defe|edd^c|=cBBA|DE/F/ ED|DAA2:|
[V:1]|:A>^c dD|^f^gaA|ddee|ffg2|^cedf|ef/b/ ag|fed^c|edd2:|
[V:2]|:A^c dD|^F^GAA|AA^c^c|dde2|A^cBd|^c2fe|fed^c|”DC al majore”AAD2:|

